flaticon/file-type/after-effects.svg

<svg xmlns="http://www.w3.org/2000/svg" width="32" height="32" viewBox="0 0 24 24">
    <path d="M 18.589844 0 L 5.410156 0 C 2.425781 0 0 2.425781 0 5.410156 L 0 18.589844 C 0 21.574219 2.425781 24 5.410156 24 L 18.589844 24 C 21.574219 24 24 21.574219 24 18.589844 L 24 5.410156 C 24 2.425781 21.574219 0 18.589844 0 Z M 23.109375 18.589844 C 23.109375 21.082031 21.082031 23.109375 18.589844 23.109375 L 5.410156 23.109375 C 2.917969 23.109375 0.890625 21.082031 0.890625 18.589844 L 0.890625 5.410156 C 0.890625 2.917969 2.917969 0.890625 5.410156 0.890625 L 18.589844 0.890625 C 21.082031 0.890625 23.109375 2.917969 23.109375 5.410156 Z M 23.109375 18.589844"/>
    <path d="M7.378906 5.332031L3.714844 17.777344 5.101562 17.777344 6.277344 13.761719 9.972656 13.761719 11.199219 17.777344 12.640625 17.777344 8.851562 5.332031zM6.613281 12.445312L8.105469 7.394531 9.652344 12.445312zM16.425781 8.710938C15.441406 8.710938 14.652344 8.976562 14.054688 9.511719 13.453125 10.042969 13.15625 10.792969 13.15625 11.75L13.15625 15.394531C13.15625 17.125 14.1875 17.992188 16.25 17.992188 17.246094 17.992188 18.199219 17.710938 19.109375 17.15625L18.632812 16.105469C17.753906 16.59375 16.949219 16.835938 16.214844 16.835938 15.027344 16.835938 14.4375 16.332031 14.4375 15.324219L14.4375 14.398438 19.554688 14.132812 19.554688 11.699219C19.554688 10.761719 19.28125 10.03125 18.730469 9.503906 18.179688 8.976562 17.410156 8.710938 16.425781 8.710938zM18.257812 12.996094L14.4375 13.191406 14.4375 11.769531C14.4375 11.152344 14.617188 10.683594 14.976562 10.363281 15.339844 10.042969 15.78125 9.882812 16.300781 9.882812 16.824219 9.882812 17.28125 10.019531 17.671875 10.285156 18.0625 10.550781 18.257812 11 18.257812 11.625zM18.257812 12.996094"/>
</svg>

<svg xmlns="http://www.w3.org/2000/svg" width="32" height="32" viewBox="0 0 24 24">
    <path d="M18.59 0H5.41A5.415 5.415 0 0 0 0 5.41v13.18A5.415 5.415 0 0 0 5.41 24h13.18A5.415 5.415 0 0 0 24 18.59V5.41A5.415 5.415 0 0 0 18.59 0zm4.52 18.59a4.525 4.525 0 0 1-4.52 4.52H5.41a4.525 4.525 0 0 1-4.52-4.52V5.41A4.525 4.525 0 0 1 5.41.89h13.18a4.525 4.525 0 0 1 4.52 4.52zm0 0"/>
    <path d="M7.379 5.332L3.715 17.777h1.387l1.175-4.015h3.696l1.226 4.015h1.442L8.85 5.332zm-.766 7.113l1.492-5.05 1.547 5.05zm0 0M16.426 8.71c-.985 0-1.774.267-2.371.802-.602.531-.899 1.281-.899 2.238v3.645c0 1.73 1.031 2.597 3.094 2.597.996 0 1.95-.281 2.86-.836l-.477-1.05c-.88.488-1.684.73-2.418.73-1.188 0-1.777-.504-1.777-1.512v-.926l5.117-.265v-2.434c0-.937-.274-1.668-.825-2.195-.55-.527-1.32-.793-2.304-.793zm1.832 4.286l-3.82.195V11.77c0-.618.18-1.086.539-1.407.363-.32.804-.48 1.324-.48.523 0 .98.137 1.37.402.392.266.587.715.587 1.34zm0 0"/>
</svg>
